azure-icons/integration-214-Azure-Service-Bus.svg

<svg xmlns="http://www.w3.org/2000/svg" width="18" height="18"><defs><linearGradient id="a" x1="9" y1="10.3" x2="9" y2="13.2" gradientUnits="userSpaceOnUse"><stop offset="0" stop-color="#005ba1"/><stop offset=".26" stop-color="#00589d"/><stop offset=".53" stop-color="#004f90"/><stop offset=".8" stop-color="#003f7c"/><stop offset="1" stop-color="#003067"/></linearGradient></defs><path fill="#50e6ff" d="M13.39 7.4h-.01v-.02h-.02L9 4.41 4.63 7.38h-.02V13.2h8.77V7.4h.01z"/><path d="M4.61 7.4v5.8L9 10.3z" fill="#32bedd"/><path d="M13.38 7.4L9 10.3l4.38 2.9z" fill="#198ab3"/><path fill="url(#a)" d="M8.99 10.3l-4.38 2.89v.01h8.77v-.01L8.99 10.3z"/><g fill="#999"><path d="M1.07 1.43h1.29V5a.29.29 0 01-.29.29H.79A.29.29 0 01.5 5V2a.57.57 0 01.57-.57z"/><path d="M1.07 1.43h1.29V5a.29.29 0 01-.29.29H.79A.29.29 0 01.5 5V2a.57.57 0 01.57-.57z" opacity=".5"/></g><g fill="#999"><path d="M15.64 1.43h1.29a.57.57 0 01.57.57v3a.29.29 0 01-.29.29h-1.29a.29.29 0 01-.28-.29V1.43z"/><path d="M15.64 1.43h1.29a.57.57 0 01.57.57v3a.29.29 0 01-.29.29h-1.29a.29.29 0 01-.28-.29V1.43z" opacity=".5"/></g><path d="M17.5 2v1.25H.5V2a.57.57 0 01.57-.57h15.87a.57.57 0 01.56.57z" fill="#949494"/><g fill="#999"><path d="M.79 12.68h1.29a.29.29 0 01.29.29v3.6h-1.3A.57.57 0 01.5 16v-3a.29.29 0 01.29-.32z"/><path d="M.79 12.68h1.29a.29.29 0 01.29.29v3.6h-1.3A.57.57 0 01.5 16v-3a.29.29 0 01.29-.32z" opacity=".5"/></g><g fill="#999"><path d="M15.92 12.68h1.29a.29.29 0 01.29.29v3a.57.57 0 01-.57.57h-1.29V13a.29.29 0 01.28-.32z"/><path d="M15.92 12.68h1.29a.29.29 0 01.29.29v3a.57.57 0 01-.57.57h-1.29V13a.29.29 0 01.28-.32z" opacity=".5"/></g><path d="M.5 16v-1.25h17V16a.57.57 0 01-.57.57H1.07A.57.57 0 01.5 16z" fill="#949494"/></svg>

<svg xmlns="http://www.w3.org/2000/svg"  width="18" height="18" viewBox="0 0 18 18">
  <defs>
    <linearGradient id="b00d9567-37ef-4092-8247-b0da51825c75" x1="9" y1="10.3" x2="9" y2="13.2" gradientUnits="userSpaceOnUse">
      <stop offset="0" stop-color="#005ba1"/>
      <stop offset="0.26" stop-color="#00589d"/>
      <stop offset="0.53" stop-color="#004f90"/>
      <stop offset="0.8" stop-color="#003f7c"/>
      <stop offset="1" stop-color="#003067"/>
    </linearGradient>
  </defs>
  <title>Icon-integration-214</title>
  <g>
    <g id="bd58a0ee-8636-425f-bad3-66b90ec92be8">
      <polygon points="13.39 7.4 13.38 7.4 13.38 7.38 13.36 7.38 9 4.41 4.63 7.38 4.61 7.38 4.61 7.4 4.61 7.4 4.61 7.4 4.61 13.2 13.38 13.2 13.38 7.4 13.39 7.4" fill="#50e6ff"/>
      <path d="M4.61,7.4v5.8L9,10.3Z" fill="#32bedd"/>
      <path d="M13.38,7.4,9,10.3l4.38,2.9Z" fill="#198ab3"/>
      <polygon points="8.99 10.3 4.61 13.19 4.61 13.2 13.38 13.2 13.38 13.19 8.99 10.3" fill="url(#b00d9567-37ef-4092-8247-b0da51825c75)"/>
      <g>
        <path d="M1.07,1.43H2.36a0,0,0,0,1,0,0V5a.29.29,0,0,1-.29.29H.79A.29.29,0,0,1,.5,5V2A.57.57,0,0,1,1.07,1.43Z" fill="#999"/>
        <path d="M1.07,1.43H2.36a0,0,0,0,1,0,0V5a.29.29,0,0,1-.29.29H.79A.29.29,0,0,1,.5,5V2A.57.57,0,0,1,1.07,1.43Z" fill="#999" opacity="0.5"/>
      </g>
      <g>
        <path d="M15.64,1.43h1.29A.57.57,0,0,1,17.5,2V5a.29.29,0,0,1-.29.29H15.92A.29.29,0,0,1,15.64,5V1.43A0,0,0,0,1,15.64,1.43Z" fill="#999"/>
        <path d="M15.64,1.43h1.29A.57.57,0,0,1,17.5,2V5a.29.29,0,0,1-.29.29H15.92A.29.29,0,0,1,15.64,5V1.43A0,0,0,0,1,15.64,1.43Z" fill="#999" opacity="0.5"/>
      </g>
      <path d="M8.66-6.16H9.91a0,0,0,0,1,0,0v17a0,0,0,0,1,0,0H8.66a.57.57,0,0,1-.57-.57V-5.6A.57.57,0,0,1,8.66-6.16Z" transform="translate(11.34 -6.66) rotate(90)" fill="#949494"/>
      <g>
        <path d="M.79,12.68H2.08a.29.29,0,0,1,.29.29v3.6a0,0,0,0,1,0,0H1.07A.57.57,0,0,1,.5,16V13A.29.29,0,0,1,.79,12.68Z" fill="#999"/>
        <path d="M.79,12.68H2.08a.29.29,0,0,1,.29.29v3.6a0,0,0,0,1,0,0H1.07A.57.57,0,0,1,.5,16V13A.29.29,0,0,1,.79,12.68Z" fill="#999" opacity="0.5"/>
      </g>
      <g>
        <path d="M15.92,12.68h1.29a.29.29,0,0,1,.29.29v3a.57.57,0,0,1-.57.57H15.64a0,0,0,0,1,0,0V13A.29.29,0,0,1,15.92,12.68Z" fill="#999"/>
        <path d="M15.92,12.68h1.29a.29.29,0,0,1,.29.29v3a.57.57,0,0,1-.57.57H15.64a0,0,0,0,1,0,0V13A.29.29,0,0,1,15.92,12.68Z" fill="#999" opacity="0.5"/>
      </g>
      <path d="M8.66,7.16H9.91a0,0,0,0,1,0,0v17a0,0,0,0,1,0,0H8.66a.57.57,0,0,1-.57-.57V7.73A.57.57,0,0,1,8.66,7.16Z" transform="translate(-6.66 24.66) rotate(-90)" fill="#949494"/>
    </g>
  </g>
</svg>
